www/images/victory@2x.svg

<svg fill="none" height="55" viewBox="0 0 54 55" width="54" xmlns="http://www.w3.org/2000/svg"><path d="m36.3474 13.6235c-.3704-.5854-.9525-.9985-1.62-1.1495-.678-.1438-1.3843-.0094-1.9656.374-.2874.19-.5352.436-.7289.7239s-.3295.612-.3997.9536l-1.9008 9.0475-1.8738-9.0475c-.0702-.3416-.206-.6657-.3997-.9536s-.4414-.5339-.7289-.7239c-.4325-.2885-.9394-.4397-1.4563-.4342-.517.0055-1.0207.1673-1.4472.4649-.4265.2977-.7565.7177-.9481 1.2068-.1917.489-.2363 1.0251-.1282 1.54l1.6524 7.9695c-.3575-.3188-.7941-.5315-1.2621-.6151s-.9496-.0349-1.3923.141c-.4427.1758-.8296.4719-1.1185.8562-.2889.3842-.4688.8418-.5201 1.3229-.5355-.0608-1.0762.0528-1.5444.3245-.2986.1716-.5608.4019-.7712.6776-.2105.2758-.365.5913-.4546.9284-.0519.179-.0828.3636-.0918.55-.0053.0604-.0053.1211 0 .1815v6.6c.0003.1716.0532.3389.1512.4785l2.0412 2.948v3.7675c0 .2188.0854.4286.2373.5834.1519.1547.3579.2416.5727.2416h11.6748c.2148 0 .4209-.0869.5728-.2416.1519-.1548.2372-.3646.2372-.5834v-3.806l2.8404-4.4c.8316-1.2815.7938-2.706-.108-3.619l-1.4202-1.441 2.673-12.8645c.0721-.3421.0763-.6955.0123-1.0393-.0639-.3439-.1948-.6712-.3849-.9627zm-12.0096 1.65c-.0271-.1297-.0287-.2635-.0046-.3938s.0734-.2545.145-.3652c.0695-.1113.1603-.2071.267-.2818s.2271-.1266.354-.1527c.127-.0287.2583-.0314.3862-.0077.128.0236.25.0729.359.1452.1096.0722.2042.1657.2784.2752.0741.1095.1263.2328.1536.3628l2.2032 10.637h-1.4796c-.1813.0007-.3621.0191-.54.055zm-2.16 9.4325c.1538-.0852.3272-.1269.5022-.121.0896-.0003.1787.0127.2646.0385.1251.0343.2421.0938.3442.1751.102.0812.187.1825.2498.2979l1.08 1.9415c-.1695.3629-.2553.7605-.2508 1.1624.0046.4019.0993.7973.277 1.1562.1777.3588.4337.6715.7483.914.3147.2426.6796.4086 1.0669.4854-.0235.1382-.0753.2699-.152.3864s-.1766.2153-.2932.29-.2473.1236-.3836.1435c-.1364.0199-.2753.0104-.4078-.0279-.1251-.0343-.2421-.0938-.3441-.1751-.1021-.0812-.187-.1825-.2499-.2979l-1.8846-3.3825-.5994-1.1-.2916-.517c-.1255-.2287-.1591-.498-.0936-.7514.0655-.2533.2248-.471.4446-.6071zm-3.2778 2.948c.0568-.2127.1805-.4005.3522-.5346.1717-.1342.3818-.2072.5982-.2079.0896-.0011.1789.0119.2646.0385.1257.0345.2434.0941.3463.1753s.1889.1824.2531.2977l2.1924 3.927c.1296.2327.1632.5082.0933.7661s-.2375.4769-.4659.6089-.499.1662-.7522.095c-.2531-.0711-.4682-.2418-.5978-.4745l-2.1924-3.9435c-.1246-.2278-.1575-.496-.0918-.748zm15.4278 3.454c.54.55-.0378 1.452-.1026 1.551l-.0324.066-2.9376 4.554c-.0874.1336-.1343.2904-.135.451v3.2065h-10.0602v-3.212c-.0013-.1715-.0541-.3384-.1512-.4785l-2.0628-2.948v-2.7885l.9288 1.65c.229.4085.5598.7482.959.9848s.8526.3617 1.3144.3627c.4508.001.894-.1184 1.2852-.3465.4731-.2687.8511-.6825 1.08-1.1825.1187.0584.2415.1081.3672.1485.2293.0608.4651.0922.702.0935.6518.0012 1.2804-.2468 1.7613-.6949s.7793-1.0637.8361-1.7251h1.2258c.1455-.0008.2882-.0409.4134-.1163.1253-.0753.2286-.1833.2994-.3127.0624-.1224.0957-.2581.0972-.396 0-.2188-.0853-.4286-.2372-.5834-.1519-.1547-.358-.2416-.5728-.2416h-2.3058c-.1363.0103-.2732-.0082-.4021-.0543s-.2472-.1187-.3473-.2135c-.1001-.0947-.18-.2094-.2346-.337s-.0828-.2653-.0828-.4044c0-.1392.0282-.2769.0828-.4045s.1345-.2423.2346-.337c.1001-.0948.2184-.1674.3473-.2135s.2658-.0645.4021-.0543h2.8188c.1012.0024.2015.0209.297.055.0418.0162.0853.0272.1296.033.2034.0331.392.1291.54.275zm.8046-15.8235-2.4516 11.814-.729-.748c-.2852-.2861-.6305-.5023-1.0098-.6325l2.2518-10.868c.0421-.1939.1393-.371.2795-.5091.1401-.138.3171-.2311.5088-.2674.1918-.0364.3897-.0145.5693.063.1796.0774.3328.207.4406.3725.0726.1134.1224.2403.1465.3734s.0221.2698-.0061.4021z" fill="#000"/><path d="m24.3378 15.2735c-.0271-.1297-.0287-.2635-.0046-.3938s.0734-.2545.145-.3652c.0695-.1113.1603-.2071.267-.2818s.2271-.1266.354-.1527c.127-.0287.2583-.0314.3862-.0077.128.0236.25.0729.359.1452.1096.0722.2042.1657.2784.2752.0741.1095.1263.2328.1536.3628l2.2032 10.637h-1.4796c-.1813.0007-.3621.0191-.54.055zm-2.16 9.4325c.1538-.0852.3272-.1269.5022-.121.0896-.0003.1787.0127.2646.0385.1251.0343.2421.0938.3442.1751.102.0812.187.1825.2498.2979l1.08 1.9415c-.1695.3629-.2553.7605-.2508 1.1624.0046.4019.0993.7973.277 1.1562.1777.3588.4337.6715.7483.914.3147.2426.6796.4086 1.0669.4854-.0235.1382-.0753.2699-.152.3864s-.1766.2153-.2932.29-.2473.1236-.3836.1435c-.1364.0199-.2753.0104-.4078-.0279-.1251-.0343-.2421-.0938-.3441-.1751-.1021-.0812-.187-.1825-.2499-.2979l-1.8846-3.3825-.5994-1.1-.2916-.517c-.1255-.2287-.1591-.498-.0936-.7514.0655-.2533.2248-.471.4446-.6071zm-3.2778 2.948c.0568-.2127.1805-.4005.3522-.5346.1717-.1342.3818-.2072.5982-.2079.0896-.0011.1789.0119.2646.0385.1257.0345.2434.0941.3463.1753s.1889.1824.2531.2977l2.1924 3.927c.1296.2327.1632.5082.0933.7661s-.2375.4769-.4659.6089-.499.1662-.7522.095c-.2531-.0711-.4682-.2418-.5978-.4745l-2.1924-3.9435c-.1246-.2278-.1575-.496-.0918-.748zm15.4278 3.454c.54.55-.0378 1.452-.1026 1.551l-.0324.066-2.9376 4.554c-.0874.1336-.1343.2904-.135.451v3.2065h-10.0602v-3.212c-.0013-.1715-.0541-.3384-.1512-.4785l-2.0628-2.948v-2.7885l.9288 1.65c.229.4085.5598.7482.959.9848s.8526.3617 1.3144.3627c.4508.001.894-.1184 1.2852-.3465.4731-.2687.8511-.6825 1.08-1.1825.1187.0584.2415.1081.3672.1485.2293.0608.4651.0922.702.0935.6518.0012 1.2804-.2468 1.7613-.6949s.7793-1.0637.8361-1.7251h1.2258c.1455-.0007.2882-.0409.4134-.1163.1253-.0753.2286-.1833.2994-.3127.0624-.1224.0957-.2581.0972-.396 0-.2188-.0853-.4286-.2372-.5834-.1519-.1547-.358-.2416-.5728-.2416h-2.3058c-.1363.0103-.2732-.0082-.4021-.0543s-.2472-.1187-.3473-.2135c-.1001-.0947-.18-.2094-.2346-.337s-.0828-.2653-.0828-.4044c0-.1392.0282-.2769.0828-.4045s.1345-.2423.2346-.337c.1001-.0948.2184-.1674.3473-.2135s.2658-.0646.4021-.0543h2.8188c.1012.0024.2015.0209.297.055.0418.0162.0853.0272.1296.033.2034.0331.392.1291.54.275zm.8046-15.8235-2.4516 11.814-.729-.748c-.2852-.2861-.6305-.5023-1.0098-.6325l2.2518-10.868c.0421-.1939.1393-.371.2795-.5091.1401-.138.3171-.2311.5088-.2674.1918-.0364.3897-.0145.5693.063.1796.0774.3328.207.4406.3725.0726.1134.1224.2403.1465.3734s.0221.2698-.0061.4021z" fill="#fff"/></svg>

<svg width="54" height="55" viewBox="0 0 54 55" fill="none" xmlns="http://www.w3.org/2000/svg">
<path d="M36.3474 13.6235C35.977 13.0381 35.3949 12.625 34.7274 12.474C34.0494 12.3302 33.3431 12.4646 32.7618 12.848C32.4744 13.038 32.2266 13.284 32.0329 13.5719C31.8392 13.8598 31.7034 14.1839 31.6332 14.5255L29.7324 23.573L27.8586 14.5255C27.7884 14.1839 27.6526 13.8598 27.4589 13.5719C27.2652 13.284 27.0175 13.038 26.73 12.848C26.2975 12.5595 25.7906 12.4083 25.2737 12.4138C24.7567 12.4193 24.253 12.5811 23.8265 12.8787C23.4 13.1764 23.07 13.5964 22.8784 14.0855C22.6867 14.5745 22.6421 15.1106 22.7502 15.6255L24.4026 23.595C24.0451 23.2762 23.6085 23.0635 23.1405 22.9799C22.6725 22.8963 22.1909 22.945 21.7482 23.1209C21.3055 23.2967 20.9186 23.5928 20.6297 23.9771C20.3408 24.3613 20.1609 24.8189 20.1096 25.3C19.5741 25.2392 19.0334 25.3528 18.5652 25.6245C18.2666 25.7961 18.0044 26.0264 17.794 26.3021C17.5835 26.5779 17.429 26.8934 17.3394 27.2305C17.2875 27.4095 17.2566 27.5941 17.2476 27.7805C17.2423 27.8409 17.2423 27.9016 17.2476 27.962V34.562C17.2479 34.7336 17.3008 34.9009 17.3988 35.0405L19.44 37.9885V41.756C19.44 41.9748 19.5254 42.1846 19.6773 42.3394C19.8292 42.4941 20.0352 42.581 20.25 42.581H31.9248C32.1396 42.581 32.3457 42.4941 32.4976 42.3394C32.6495 42.1846 32.7348 41.9748 32.7348 41.756V37.95L35.5752 33.55C36.4068 32.2685 36.369 30.844 35.4672 29.931L34.047 28.49L36.72 15.6255C36.7921 15.2834 36.7963 14.93 36.7323 14.5862C36.6684 14.2423 36.5375 13.915 36.3474 13.6235ZM24.3378 15.2735C24.3107 15.1438 24.3091 15.01 24.3332 14.8797C24.3573 14.7494 24.4066 14.6252 24.4782 14.5145C24.5477 14.4032 24.6385 14.3074 24.7452 14.2327C24.8519 14.158 24.9723 14.1061 25.0992 14.08C25.2262 14.0513 25.3575 14.0486 25.4854 14.0723C25.6134 14.0959 25.7354 14.1452 25.8444 14.2175C25.954 14.2897 26.0486 14.3832 26.1228 14.4927C26.1969 14.6022 26.2491 14.7255 26.2764 14.8555L28.4796 25.4925H27C26.8187 25.4932 26.6379 25.5116 26.46 25.5475L24.3378 15.2735ZM22.1778 24.706C22.3316 24.6208 22.505 24.5791 22.68 24.585C22.7696 24.5847 22.8587 24.5977 22.9446 24.6235C23.0697 24.6578 23.1867 24.7173 23.2888 24.7986C23.3908 24.8798 23.4758 24.9811 23.5386 25.0965L24.6186 27.038C24.4491 27.4009 24.3633 27.7985 24.3678 28.2004C24.3724 28.6023 24.4671 28.9977 24.6448 29.3566C24.8225 29.7154 25.0785 30.0281 25.3931 30.2706C25.7078 30.5132 26.0727 30.6792 26.46 30.756C26.4365 30.8942 26.3847 31.0259 26.308 31.1424C26.2313 31.2589 26.1314 31.3577 26.0148 31.4324C25.8982 31.5071 25.7675 31.556 25.6312 31.5759C25.4948 31.5958 25.3559 31.5863 25.2234 31.548C25.0983 31.5137 24.9813 31.4542 24.8793 31.3729C24.7772 31.2917 24.6923 31.1904 24.6294 31.075L22.7448 27.6925L22.1454 26.5925L21.8538 26.0755C21.7283 25.8468 21.6947 25.5775 21.7602 25.3241C21.8257 25.0708 21.985 24.8531 22.2048 24.717L22.1778 24.706ZM18.9 27.654C18.9568 27.4413 19.0805 27.2535 19.2522 27.1194C19.4239 26.9852 19.634 26.9122 19.8504 26.9115C19.94 26.9104 20.0293 26.9234 20.115 26.95C20.2407 26.9845 20.3584 27.0441 20.4613 27.1253C20.5642 27.2065 20.6502 27.3077 20.7144 27.423L22.9068 31.35C23.0364 31.5827 23.07 31.8582 23.0001 32.1161C22.9302 32.374 22.7626 32.593 22.5342 32.725C22.3058 32.857 22.0352 32.8912 21.782 32.82C21.5289 32.7489 21.3138 32.5782 21.1842 32.3455L18.9918 28.402C18.8672 28.1742 18.8343 27.906 18.9 27.654ZM34.3278 31.108C34.8678 31.658 34.29 32.56 34.2252 32.659L34.1928 32.725L31.2552 37.279C31.1678 37.4126 31.1209 37.5694 31.1202 37.73V40.9365H21.06V37.7245C21.0587 37.553 21.0059 37.3861 20.9088 37.246L18.846 34.298V31.5095L19.7748 33.1595C20.0038 33.568 20.3346 33.9077 20.7338 34.1443C21.133 34.3809 21.5864 34.506 22.0482 34.507C22.499 34.508 22.9422 34.3886 23.3334 34.1605C23.8065 33.8918 24.1845 33.478 24.4134 32.978C24.5321 33.0364 24.6549 33.0861 24.7806 33.1265C25.0099 33.1873 25.2457 33.2187 25.4826 33.22C26.1344 33.2212 26.763 32.9732 27.2439 32.5251C27.7248 32.077 28.0232 31.4614 28.08 30.8H29.3058C29.4513 30.7992 29.594 30.7591 29.7192 30.6837C29.8445 30.6084 29.9478 30.5004 30.0186 30.371C30.081 30.2486 30.1143 30.1129 30.1158 29.975C30.1158 29.7562 30.0305 29.5464 29.8786 29.3916C29.7267 29.2369 29.5206 29.15 29.3058 29.15H27C26.8637 29.1603 26.7268 29.1418 26.5979 29.0957C26.469 29.0496 26.3507 28.977 26.2506 28.8822C26.1505 28.7875 26.0706 28.6728 26.016 28.5452C25.9614 28.4176 25.9332 28.2799 25.9332 28.1408C25.9332 28.0016 25.9614 27.8639 26.016 27.7363C26.0706 27.6087 26.1505 27.494 26.2506 27.3993C26.3507 27.3045 26.469 27.2319 26.5979 27.1858C26.7268 27.1397 26.8637 27.1213 27 27.1315H29.8188C29.92 27.1339 30.0203 27.1524 30.1158 27.1865C30.1576 27.2027 30.2011 27.2137 30.2454 27.2195C30.4488 27.2526 30.6374 27.3486 30.7854 27.4945L34.3278 31.108ZM35.1324 15.2845L32.6808 27.0985L31.9518 26.3505C31.6666 26.0644 31.3213 25.8482 30.942 25.718L33.1938 14.85C33.2359 14.6561 33.3331 14.479 33.4733 14.3409C33.6134 14.2029 33.7904 14.1098 33.9821 14.0735C34.1739 14.0371 34.3718 14.059 34.5514 14.1365C34.731 14.2139 34.8842 14.3435 34.992 14.509C35.0646 14.6224 35.1144 14.7493 35.1385 14.8824C35.1626 15.0155 35.1606 15.1522 35.1324 15.2845Z" fill="black"/>
<path d="M24.3378 15.2735C24.3107 15.1438 24.3091 15.01 24.3332 14.8797C24.3573 14.7494 24.4066 14.6252 24.4782 14.5145C24.5477 14.4032 24.6385 14.3074 24.7452 14.2327C24.8519 14.158 24.9723 14.1061 25.0992 14.08C25.2262 14.0513 25.3575 14.0486 25.4854 14.0723C25.6134 14.0959 25.7354 14.1452 25.8444 14.2175C25.954 14.2897 26.0486 14.3832 26.1228 14.4927C26.1969 14.6022 26.2491 14.7255 26.2764 14.8555L28.4796 25.4925H27C26.8187 25.4932 26.6379 25.5116 26.46 25.5475L24.3378 15.2735ZM22.1778 24.706C22.3316 24.6208 22.505 24.5791 22.68 24.585C22.7696 24.5847 22.8587 24.5977 22.9446 24.6235C23.0697 24.6578 23.1867 24.7173 23.2888 24.7986C23.3908 24.8798 23.4758 24.9811 23.5386 25.0965L24.6186 27.038C24.4491 27.4009 24.3633 27.7985 24.3678 28.2004C24.3724 28.6023 24.4671 28.9977 24.6448 29.3566C24.8225 29.7154 25.0785 30.0281 25.3931 30.2706C25.7078 30.5132 26.0727 30.6792 26.46 30.756C26.4365 30.8942 26.3847 31.0259 26.308 31.1424C26.2313 31.2589 26.1314 31.3577 26.0148 31.4324C25.8982 31.5071 25.7675 31.556 25.6312 31.5759C25.4948 31.5958 25.3559 31.5863 25.2234 31.548C25.0983 31.5137 24.9813 31.4542 24.8793 31.3729C24.7772 31.2917 24.6923 31.1904 24.6294 31.075L22.7448 27.6925L22.1454 26.5925L21.8538 26.0755C21.7283 25.8468 21.6947 25.5775 21.7602 25.3241C21.8257 25.0708 21.985 24.8531 22.2048 24.717L22.1778 24.706ZM18.9 27.654C18.9568 27.4413 19.0805 27.2535 19.2522 27.1194C19.4239 26.9852 19.634 26.9122 19.8504 26.9115C19.94 26.9104 20.0293 26.9234 20.115 26.95C20.2407 26.9845 20.3584 27.0441 20.4613 27.1253C20.5642 27.2065 20.6502 27.3077 20.7144 27.423L22.9068 31.35C23.0364 31.5827 23.07 31.8582 23.0001 32.1161C22.9302 32.374 22.7626 32.593 22.5342 32.725C22.3058 32.857 22.0352 32.8912 21.782 32.82C21.5289 32.7489 21.3138 32.5782 21.1842 32.3455L18.9918 28.402C18.8672 28.1742 18.8343 27.906 18.9 27.654ZM34.3278 31.108C34.8678 31.658 34.29 32.56 34.2252 32.659L34.1928 32.725L31.2552 37.279C31.1678 37.4126 31.1209 37.5694 31.1202 37.73V40.9365H21.06V37.7245C21.0587 37.553 21.0059 37.3861 20.9088 37.246L18.846 34.298V31.5095L19.7748 33.1595C20.0038 33.568 20.3346 33.9077 20.7338 34.1443C21.133 34.3809 21.5864 34.506 22.0482 34.507C22.499 34.508 22.9422 34.3886 23.3334 34.1605C23.8065 33.8918 24.1845 33.478 24.4134 32.978C24.5321 33.0364 24.6549 33.0861 24.7806 33.1265C25.0099 33.1873 25.2457 33.2187 25.4826 33.22C26.1344 33.2212 26.763 32.9732 27.2439 32.5251C27.7248 32.077 28.0232 31.4614 28.08 30.8H29.3058C29.4513 30.7993 29.594 30.7591 29.7192 30.6837C29.8445 30.6084 29.9478 30.5004 30.0186 30.371C30.081 30.2486 30.1143 30.1129 30.1158 29.975C30.1158 29.7562 30.0305 29.5464 29.8786 29.3916C29.7267 29.2369 29.5206 29.15 29.3058 29.15H27C26.8637 29.1603 26.7268 29.1418 26.5979 29.0957C26.469 29.0496 26.3507 28.977 26.2506 28.8822C26.1505 28.7875 26.0706 28.6728 26.016 28.5452C25.9614 28.4176 25.9332 28.2799 25.9332 28.1408C25.9332 28.0016 25.9614 27.8639 26.016 27.7363C26.0706 27.6087 26.1505 27.494 26.2506 27.3993C26.3507 27.3045 26.469 27.2319 26.5979 27.1858C26.7268 27.1397 26.8637 27.1212 27 27.1315H29.8188C29.92 27.1339 30.0203 27.1524 30.1158 27.1865C30.1576 27.2027 30.2011 27.2137 30.2454 27.2195C30.4488 27.2526 30.6374 27.3486 30.7854 27.4945L34.3278 31.108ZM35.1324 15.2845L32.6808 27.0985L31.9518 26.3505C31.6666 26.0644 31.3213 25.8482 30.942 25.718L33.1938 14.85C33.2359 14.6561 33.3331 14.479 33.4733 14.3409C33.6134 14.2029 33.7904 14.1098 33.9821 14.0735C34.1739 14.0371 34.3718 14.059 34.5514 14.1365C34.731 14.2139 34.8842 14.3435 34.992 14.509C35.0646 14.6224 35.1144 14.7493 35.1385 14.8824C35.1626 15.0155 35.1606 15.1522 35.1324 15.2845Z" fill="white"/>
</svg>
